svg/shift.svg

<?xml version="1.0" encoding="UTF-8" standalone="no"?>
<!-- Created with Inkscape (http://www.inkscape.org/) -->

<svg
   xmlns:dc="http://purl.org/dc/elements/1.1/"
   xmlns:cc="http://creativecommons.org/ns#"
   xmlns:rdf="http://www.w3.org/1999/02/22-rdf-syntax-ns#"
   xmlns:svg="http://www.w3.org/2000/svg"
   xmlns="http://www.w3.org/2000/svg"
   xmlns:xlink="http://www.w3.org/1999/xlink"
   xmlns:sodipodi="http://sodipodi.sourceforge.net/DTD/sodipodi-0.dtd"
   xmlns:inkscape="http://www.inkscape.org/namespaces/inkscape"
   width="72.000000px"
   height="48.000000px"
   id="svg1770"
   sodipodi:version="0.32"
   inkscape:version="0.47pre4 r22446"
   sodipodi:docname="shift.svg"
   version="1.1">
  <defs
     id="defs3">
    <inkscape:perspective
       sodipodi:type="inkscape:persp3d"
       inkscape:vp_x="0 : 24 : 1"
       inkscape:vp_y="0 : 1000 : 0"
       inkscape:vp_z="72 : 24 : 1"
       inkscape:persp3d-origin="36 : 16 : 1"
       id="perspective5486" />
    <linearGradient
       id="linearGradient2103">
      <stop
         id="stop2105"
         offset="0.0000000"
         style="stop-color:#e1e1e1;stop-opacity:1.0000000;" />
      <stop
         id="stop2107"
         offset="1.0000000"
         style="stop-color:#a2a2a3;stop-opacity:1.0000000;" />
    </linearGradient>
    <linearGradient
       id="linearGradient2064">
      <stop
         id="stop2066"
         offset="0.0000000"
         style="stop-color:#b2b2b2;stop-opacity:1.0000000;" />
      <stop
         id="stop2068"
         offset="1.0000000"
         style="stop-color:#dcdcde;stop-opacity:1.0000000;" />
    </linearGradient>
    <linearGradient
       id="linearGradient2052">
      <stop
         id="stop2054"
         offset="0.0000000"
         style="stop-color:#aaaaaa;stop-opacity:1.0000000;" />
      <stop
         id="stop2056"
         offset="1.0000000"
         style="stop-color:#c8c8ca;stop-opacity:1.0000000;" />
    </linearGradient>
    <linearGradient
       id="linearGradient1784">
      <stop
         style="stop-color:#ffffff;stop-opacity:1.0000000;"
         offset="0.0000000"
         id="stop1785" />
      <stop
         style="stop-color:#dcdcde;stop-opacity:1.0000000;"
         offset="1.0000000"
         id="stop1786" />
    </linearGradient>
    <linearGradient
       inkscape:collect="always"
       xlink:href="#linearGradient1784"
       id="linearGradient1789"
       gradientUnits="userSpaceOnUse"
       gradientTransform="matrix(1.593044,0.000000,0.000000,1.241206,-129.6924,-73.34169)"
       x1="250.05389"
       y1="259.81915"
       x2="511.68912"
       y2="549.61267" />
    <linearGradient
       inkscape:collect="always"
       xlink:href="#linearGradient2052"
       id="linearGradient1794"
       gradientTransform="matrix(2.470094,0.000000,0.000000,0.404843,-5.695438,24.53693)"
       x1="205.67348"
       y1="1468.6681"
       x2="69.096588"
       y2="1222.1282"
       gradientUnits="userSpaceOnUse" />
    <linearGradient
       inkscape:collect="always"
       xlink:href="#linearGradient2064"
       id="linearGradient1804"
       gradientTransform="matrix(0.493865,0.000000,0.000000,2.024845,-5.695438,24.53693)"
       x1="1390.4071"
       y1="284.34747"
       x2="1180.5344"
       y2="65.461601"
       gradientUnits="userSpaceOnUse" />
    <linearGradient
       inkscape:collect="always"
       xlink:href="#linearGradient1784"
       id="linearGradient2083"
       gradientUnits="userSpaceOnUse"
       gradientTransform="matrix(1.593044,0.000000,0.000000,1.241206,-129.6924,-73.34169)"
       x1="250.05389"
       y1="259.81915"
       x2="511.68912"
       y2="549.61267" />
    <linearGradient
       inkscape:collect="always"
       xlink:href="#linearGradient2052"
       id="linearGradient2085"
       gradientUnits="userSpaceOnUse"
       gradientTransform="matrix(2.470094,0.000000,0.000000,0.404843,-5.695438,24.53693)"
       x1="205.67348"
       y1="1468.6681"
       x2="69.096588"
       y2="1222.1282" />
    <linearGradient
       inkscape:collect="always"
       xlink:href="#linearGradient2064"
       id="linearGradient2087"
       gradientUnits="userSpaceOnUse"
       gradientTransform="matrix(0.493865,0.000000,0.000000,2.024845,-5.695438,24.53693)"
       x1="1390.4071"
       y1="284.34747"
       x2="1180.5344"
       y2="65.461601" />
    <linearGradient
       inkscape:collect="always"
       xlink:href="#linearGradient2064"
       id="linearGradient2094"
       gradientUnits="userSpaceOnUse"
       gradientTransform="matrix(0.02919086,0,0,0.119682,27.33184,7.804527)"
       x1="1390.4071"
       y1="284.34747"
       x2="1180.5344"
       y2="65.461601" />
    <linearGradient
       inkscape:collect="always"
       xlink:href="#linearGradient2052"
       id="linearGradient2098"
       gradientUnits="userSpaceOnUse"
       gradientTransform="matrix(0.146,0,0,0.02392903,0.716466,7.804527)"
       x1="205.67348"
       y1="1468.6681"
       x2="69.096588"
       y2="1222.1282" />
    <linearGradient
       inkscape:collect="always"
       xlink:href="#linearGradient2103"
       id="linearGradient2101"
       gradientUnits="userSpaceOnUse"
       gradientTransform="matrix(1.40967,0,0,1.098332,-8.853555,-5.868595)"
       x1="34.792320"
       y1="42.567181"
       x2="13.165886"
       y2="15.033080" />
  </defs>
  <sodipodi:namedview
     id="base"
     pagecolor="#ffffff"
     bordercolor="#666666"
     borderopacity="1.0"
     inkscape:pageopacity="0.0"
     inkscape:pageshadow="2"
     inkscape:zoom="9.3333333"
     inkscape:cx="36"
     inkscape:cy="24.858609"
     inkscape:current-layer="layer1"
     inkscape:window-width="775"
     inkscape:window-height="726"
     inkscape:window-x="869"
     inkscape:window-y="89"
     showgrid="false"
     inkscape:window-maximized="0" />
  <metadata
     id="metadata4">
    <rdf:RDF>
      <cc:Work
         rdf:about="">
        <dc:format>image/svg+xml</dc:format>
        <dc:type
           rdf:resource="http://purl.org/dc/dcmitype/StillImage" />
      </cc:Work>
    </rdf:RDF>
  </metadata>
  <g
     inkscape:label="Layer 1"
     inkscape:groupmode="layer"
     id="layer1">
    <g
       id="g5488"
       transform="translate(0,2)">
      <rect
         ry="1.6716342"
         rx="1.6716342"
         y="4.642993"
         x="2.9048607"
         height="38.876003"
         width="65.941818"
         id="rect1788"
         style="fill:url(#linearGradient2101);fill-opacity:1;stroke:#000000;stroke-width:1;stroke-linecap:round;stroke-linejoin:miter;stroke-miterlimit:4;stroke-opacity:1;stroke-dashoffset:0" />
      <path
         sodipodi:nodetypes="ccccc"
         id="path1790"
         d="M 4.135801,42.77816 9.0040788,37.791979 61.620467,37.706891 67.133408,42.613248 4.135801,42.77816 z"
         style="fill:url(#linearGradient2098);fill-opacity:1;fill-rule:evenodd;stroke:none" />
      <path
         sodipodi:nodetypes="ccccc"
         id="path1795"
         d="M 3.8007132,42.77816 7.7147797,37.41759 7.8117597,7.8969752 3.7388802,5.6848313 3.8007132,42.77816 z"
         style="opacity:0.4969325;fill:#ffffff;fill-opacity:1;fill-rule:evenodd;stroke:none" />
      <path
         sodipodi:nodetypes="ccccc"
         id="path1800"
         d="M 67.663741,42.863248 63.192479,36.257944 62.957118,8.3208118 67.669007,6.241194 l -0.0053,36.622054 z"
         style="fill:url(#linearGradient2094);fill-opacity:1;fill-rule:evenodd;stroke:none" />
      <path
         sodipodi:nodetypes="ccccc"
         id="path1805"
         d="M 3.8299916,5.813374 7.1045217,7.9671152 61.832628,7.8188978 66.585685,6.1802586 3.8299916,5.813374 z"
         style="opacity:0.4969325;fill:#ffffff;fill-opacity:1;fill-rule:evenodd;stroke:none" />
      <text
         xml:space="preserve"
         style="font-size:7px;font-style:normal;font-variant:normal;font-weight:bold;font-stretch:normal;writing-mode:lr-tb;text-anchor:start;fill:#000000;fill-opacity:1;stroke:none;font-family:Bitstream Vera Sans"
         x="11.667261"
         y="21.45862"
         id="text14572"><tspan
           sodipodi:role="line"
           id="tspan14574"
           x="11.667261"
           y="21.45862">Shift</tspan></text>
      <path
         style="color:#000000;fill:none;stroke:#000000;stroke-width:0.99999827;stroke-linecap:butt;stroke-linejoin:miter;stroke-miterlimit:4;stroke-opacity:1;stroke-dashoffset:0;marker:none;visibility:visible;display:inline;overflow:visible"
         d="m 20.067494,24.710594 -8.38051,5.052825 3.858353,0 0,4.133169 9.044316,0 0,-4.133169 3.879095,0 -8.401254,-5.052825 z"
         id="rect15360" />
    </g>
  </g>
</svg>

<?xml version="1.0" encoding="UTF-8" standalone="no"?>
<!-- Created with Inkscape (http://www.inkscape.org/) -->
<svg
   xmlns:xml="http://www.w3.org/XML/1998/namespace"
   xmlns:dc="http://purl.org/dc/elements/1.1/"
   xmlns:cc="http://web.resource.org/cc/"
   xmlns:rdf="http://www.w3.org/1999/02/22-rdf-syntax-ns#"
   xmlns:svg="http://www.w3.org/2000/svg"
   xmlns="http://www.w3.org/2000/svg"
   xmlns:xlink="http://www.w3.org/1999/xlink"
   xmlns:sodipodi="http://inkscape.sourceforge.net/DTD/sodipodi-0.dtd"
   xmlns:inkscape="http://www.inkscape.org/namespaces/inkscape"
   width="72.000000px"
   height="48.000000px"
   id="svg1770"
   sodipodi:version="0.32"
   inkscape:version="0.41+cvs"
   sodipodi:docbase="/home/jimmac/temp/keys/out"
   sodipodi:docname="shift.svg">
  <defs
     id="defs3">
    <linearGradient
       id="linearGradient2103">
      <stop
         id="stop2105"
         offset="0.0000000"
         style="stop-color:#e1e1e1;stop-opacity:1.0000000;" />
      <stop
         id="stop2107"
         offset="1.0000000"
         style="stop-color:#a2a2a3;stop-opacity:1.0000000;" />
    </linearGradient>
    <linearGradient
       id="linearGradient2064">
      <stop
         id="stop2066"
         offset="0.0000000"
         style="stop-color:#b2b2b2;stop-opacity:1.0000000;" />
      <stop
         id="stop2068"
         offset="1.0000000"
         style="stop-color:#dcdcde;stop-opacity:1.0000000;" />
    </linearGradient>
    <linearGradient
       id="linearGradient2052">
      <stop
         id="stop2054"
         offset="0.0000000"
         style="stop-color:#aaaaaa;stop-opacity:1.0000000;" />
      <stop
         id="stop2056"
         offset="1.0000000"
         style="stop-color:#c8c8ca;stop-opacity:1.0000000;" />
    </linearGradient>
    <linearGradient
       id="linearGradient1784">
      <stop
         style="stop-color:#ffffff;stop-opacity:1.0000000;"
         offset="0.0000000"
         id="stop1785" />
      <stop
         style="stop-color:#dcdcde;stop-opacity:1.0000000;"
         offset="1.0000000"
         id="stop1786" />
    </linearGradient>
    <linearGradient
       inkscape:collect="always"
       xlink:href="#linearGradient1784"
       id="linearGradient1789"
       gradientUnits="userSpaceOnUse"
       gradientTransform="matrix(1.593044,0.000000,0.000000,1.241206,-129.6924,-73.34169)"
       x1="250.05389"
       y1="259.81915"
       x2="511.68912"
       y2="549.61267" />
    <linearGradient
       inkscape:collect="always"
       xlink:href="#linearGradient2052"
       id="linearGradient1794"
       gradientTransform="matrix(2.470094,0.000000,0.000000,0.404843,-5.695438,24.53693)"
       x1="205.67348"
       y1="1468.6681"
       x2="69.096588"
       y2="1222.1282"
       gradientUnits="userSpaceOnUse" />
    <linearGradient
       inkscape:collect="always"
       xlink:href="#linearGradient2064"
       id="linearGradient1804"
       gradientTransform="matrix(0.493865,0.000000,0.000000,2.024845,-5.695438,24.53693)"
       x1="1390.4071"
       y1="284.34747"
       x2="1180.5344"
       y2="65.461601"
       gradientUnits="userSpaceOnUse" />
    <linearGradient
       inkscape:collect="always"
       xlink:href="#linearGradient1784"
       id="linearGradient2083"
       gradientUnits="userSpaceOnUse"
       gradientTransform="matrix(1.593044,0.000000,0.000000,1.241206,-129.6924,-73.34169)"
       x1="250.05389"
       y1="259.81915"
       x2="511.68912"
       y2="549.61267" />
    <linearGradient
       inkscape:collect="always"
       xlink:href="#linearGradient2052"
       id="linearGradient2085"
       gradientUnits="userSpaceOnUse"
       gradientTransform="matrix(2.470094,0.000000,0.000000,0.404843,-5.695438,24.53693)"
       x1="205.67348"
       y1="1468.6681"
       x2="69.096588"
       y2="1222.1282" />
    <linearGradient
       inkscape:collect="always"
       xlink:href="#linearGradient2064"
       id="linearGradient2087"
       gradientUnits="userSpaceOnUse"
       gradientTransform="matrix(0.493865,0.000000,0.000000,2.024845,-5.695438,24.53693)"
       x1="1390.4071"
       y1="284.34747"
       x2="1180.5344"
       y2="65.461601" />
    <linearGradient
       inkscape:collect="always"
       xlink:href="#linearGradient2064"
       id="linearGradient2094"
       gradientUnits="userSpaceOnUse"
       gradientTransform="matrix(2.919086e-2,0.000000,0.000000,0.119682,27.33184,7.804527)"
       x1="1390.4071"
       y1="284.34747"
       x2="1180.5344"
       y2="65.461601" />
    <linearGradient
       inkscape:collect="always"
       xlink:href="#linearGradient2052"
       id="linearGradient2098"
       gradientUnits="userSpaceOnUse"
       gradientTransform="matrix(0.146000,0.000000,0.000000,2.392903e-2,0.716466,7.804527)"
       x1="205.67348"
       y1="1468.6681"
       x2="69.096588"
       y2="1222.1282" />
    <linearGradient
       inkscape:collect="always"
       xlink:href="#linearGradient2103"
       id="linearGradient2101"
       gradientUnits="userSpaceOnUse"
       gradientTransform="matrix(1.409670,0.000000,0.000000,1.098332,-8.853555,-5.868595)"
       x1="34.792320"
       y1="42.567181"
       x2="13.165886"
       y2="15.033080" />
  </defs>
  <sodipodi:namedview
     id="base"
     pagecolor="#ffffff"
     bordercolor="#666666"
     borderopacity="1.0"
     inkscape:pageopacity="0.0"
     inkscape:pageshadow="2"
     inkscape:zoom="4.0000000"
     inkscape:cx="51.642403"
     inkscape:cy="19.150673"
     inkscape:current-layer="layer1"
     inkscape:window-width="757"
     inkscape:window-height="535"
     inkscape:window-x="79"
     inkscape:window-y="321" />
  <metadata
     id="metadata4">
    <rdf:RDF
       id="RDF5">
      <cc:Work
         rdf:about=""
         id="Work6">
        <dc:format
           id="format7">image/svg+xml</dc:format>
        <dc:type
           id="type9"
           rdf:resource="http://purl.org/dc/dcmitype/StillImage" />
      </cc:Work>
    </rdf:RDF>
  </metadata>
  <g
     inkscape:label="Layer 1"
     inkscape:groupmode="layer"
     id="layer1">
    <rect
       style="fill:url(#linearGradient2101);fill-opacity:1.0000000;stroke:#000000;stroke-width:1.0000000;stroke-linecap:round;stroke-linejoin:miter;stroke-miterlimit:4.0000000;stroke-dashoffset:0.0000000;stroke-opacity:1.0000000"
       id="rect1788"
       width="65.941818"
       height="38.876003"
       x="2.9048607"
       y="4.6429930"
       rx="1.6716342"
       ry="1.6716342" />
    <path
       style="fill:url(#linearGradient2098);fill-opacity:1.0000000;fill-rule:evenodd;stroke:none;stroke-width:0.25000000pt;stroke-linecap:butt;stroke-linejoin:miter;stroke-opacity:1.0000000"
       d="M 4.1358010,42.778160 L 9.0040788,37.791979 L 61.620467,37.706891 L 67.133408,42.613248 L 4.1358010,42.778160 z "
       id="path1790"
       sodipodi:nodetypes="ccccc" />
    <path
       style="opacity:0.49693248;fill:#ffffff;fill-opacity:1.0000000;fill-rule:evenodd;stroke:none;stroke-width:0.25000000pt;stroke-linecap:butt;stroke-linejoin:miter;stroke-opacity:1.0000000"
       d="M 3.8007132,42.778160 L 7.7147797,37.417590 L 7.8117597,7.8969752 L 3.7388802,5.6848313 L 3.8007132,42.778160 z "
       id="path1795"
       sodipodi:nodetypes="ccccc" />
    <path
       style="fill:url(#linearGradient2094);fill-opacity:1.0000000;fill-rule:evenodd;stroke:none;stroke-width:0.25000000pt;stroke-linecap:butt;stroke-linejoin:miter;stroke-opacity:1.0000000"
       d="M 67.663741,42.863248 L 63.192479,36.257944 L 62.957118,8.3208118 L 67.669007,6.2411940 L 67.663741,42.863248 z "
       id="path1800"
       sodipodi:nodetypes="ccccc" />
    <path
       style="opacity:0.49693248;fill:#ffffff;fill-opacity:1.0000000;fill-rule:evenodd;stroke:none;stroke-width:0.25000000pt;stroke-linecap:butt;stroke-linejoin:miter;stroke-opacity:1.0000000"
       d="M 3.8299916,5.8133740 L 7.1045217,7.9671152 L 61.832628,7.8188978 L 66.585685,6.1802586 L 3.8299916,5.8133740 z "
       id="path1805"
       sodipodi:nodetypes="ccccc" />
    <text
       id="text14572"
       y="21.45862"
       x="11.667261"
       style="font-size:7.0000000;font-style:normal;font-variant:normal;font-weight:bold;font-stretch:normal;fill:#000000;fill-opacity:1.0000000;stroke:none;stroke-width:1.0000000pt;stroke-linecap:butt;stroke-linejoin:miter;stroke-opacity:1.0000000;font-family:Bitstream Vera Sans;text-anchor:start;writing-mode:lr-tb"
       xml:space="preserve"><tspan
         y="21.458620"
         x="11.667261"
         id="tspan14574"
         sodipodi:role="line">Shift</tspan></text>
    <path
       id="rect15360"
       d="M 20.067494,24.710594 L 11.686984,29.763419 L 15.545337,29.763419 L 15.545337,33.896588 L 24.589653,33.896588 L 24.589653,29.763419 L 28.468748,29.763419 L 20.067494,24.710594 z "
       style="color:#000000;fill:none;fill-opacity:1.0000000;fill-rule:nonzero;stroke:#000000;stroke-width:0.99999827;stroke-linecap:butt;stroke-linejoin:miter;stroke-miterlimit:4.0000000;stroke-dashoffset:0.0000000;stroke-opacity:1.0000000;marker:none;marker-start:none;marker-mid:none;marker-end:none;visibility:visible;display:inline;overflow:visible" />
  </g>
</svg>
